X: 09021
T: CONNOR'S TUNE
C: Bob McQuillen 7 Nov 92
B: Bob's Note Book 9 #21
%R: reel
Z: 2019 John Chambers <jc:trillian.mit.edu>
M: C
L: 1/8
K: G
D2 \
| G2FE DGBA | G2FE D2dc | BGEG DGBG | FGAB AcBA |
| G2FE D2BA | G2FE D2dc | Bded cAFG | A2G2 G2 :|
|: FG \
| A2FE DGBG | A2FE D2G2 | ABcd cBAG | F2D2 D2GA |
| B2GB d2Bd | egfe d2cB | AGFE DFAc | B2G2 G2 :|
%%begintext align
%% This one's for Connor
%% Slieth. Connor's one of a neat pair of twin boys
%% owned and operated by Mary Des Rosiers and Rod
%% Slieth. They live in Harrisville, and I get to see
%% them at dances, particularly the Nelson Dance. It's
%% alwys fun when the kids are there. They're a cute pair.
%%endtext
